X: 157
T: les Fraises et les Framboises
C:
R: reel
B: NEFR #157
Z: 2012 John Chambers <jc:trillian.mit.edu>
N: The repeats aren't correct.  Initial repeat added to match first phrase's ending.
M: 2/4
L: 1/8
K: G
B |:\
"G"BG GD | D3 B/B/ | BG FG | "D7"A2 Dc |\
cA AF | F2 Dd | dc BA | "G"G2 Bd :|
|:\
"G"G>G GG | G3 B | AG FG | "D7"A2 Ac |\
FF/F/ FF | F3 d | dc BA |1 "G"B2 Bd :|2 "G"G3 :|


